X: 2105
T: Çoktan idim Sana Hasret
C: Kemençeci Usta Yani
O: Turkey
F: http://compmusic.upf.edu/node/140
N: acembuselik--sarki--aksak--coktan_idim--kemenceci_usta_yani
N: makam= acembuselik
N: form= sarki
N: usul= aksak = 9/8
M: 9/8
L: 1/16
K: C    
Q: 1/4=126
%%MIDI tuningsystem comma53
z4 e2f2 f2e2 agfe f2 | e2 f2ef ede3dd2 e2dc  | 
w:  Çok tan_ i *  dim   |  sa *  na  *  *  *  has *  ret    | 
c2z2 dc_2/4Bc d3e f4 z2 | fg a4 g2fe d2g2 _7/8a4  | \
w:  *  Hay *  *  li  çek *  tim   |  sûz_ *  *  *  i  *  *  fir  | 
g_7/8agf g_1/4bag gffe f4 (3gfg | 
w:  kat  *  *  *  *  *  a *  man  *  a *  man    | 
a2 z2f2 g2a4a4d'2  | a4 a_bag gagf g2a2 gf | \
w:  *  He le  gör düm   |  gül  ce *  *  *  mâ *  *  *  lin    | 
f2 z2f3eef eded c2z2  | 
w:  *  Ye *  ter  *  *  *  ba *  na   | 
f2g2 gagf _7/8edc2 f2g4 | _ba g^f_7/8ed c2ed c_2/4Bc4Bd  | 
w:  bu  *  *  *  *  *  *  *  *  sa a  |  det    | 
c2z2 ^f2g2 a4 a4 d'2 | a4a_b agga gfg2 a2gf  | \
w:  *  Çeş min  sü zer   |  gön lüm  *  *  *  ü *  *  *  zer    | 
f2z2 f3e efed ded2 c2 | 
w:  *  Mec *  nûn  *  *  *  et *  *  ti   | 
^f2 g2ga gf_3/4ed c2f2 g4  | _bag^f _3/4edc2 edc_2/4B c4 z2 | 
w:  ah  *  *  *  *  *  *  *  *  bu  söz  |  ler    | 
e2 f6fg fee4d2  | defg fede dc_1/4BA G4 c2 | 
w:  Gel   |  gel  *  *  *  *  *  a *  man  *  a *  man   | 
z4B3cBc BAB3/2d/ cBA^G  | A6ed cBA^G A4 z2 | 
w:  kal ma dı  *  *  *  tâ  |  kat   SAZ  | 
|


